static/logos/ebay-glyph-color.svg

<svg width="100" height="41" viewBox="0 0 100 41" fill="none" xmlns="http://www.w3.org/2000/svg">
<g clip-path="url(#clip0_1_2862)">
<path d="M12.9534 8.76941C5.90482 8.76941 0.03125 11.7598 0.03125 20.7815C0.03125 27.9288 3.9808 32.4297 13.1354 32.4297C23.9108 32.4297 24.6015 25.3316 24.6015 25.3316H19.3804C19.3804 25.3316 18.2609 29.1536 12.8169 29.1536C8.38292 29.1536 5.19383 26.1584 5.19383 21.96H25.1475V19.3255C25.1475 15.1721 22.5109 8.76941 12.9534 8.76941V8.76941ZM12.7714 12.1364C16.9921 12.1364 19.8695 14.7221 19.8695 18.5975H5.30931C5.30931 14.4833 9.06505 12.1364 12.7714 12.1364V12.1364Z" fill="#E53238"/>
<path d="M25.1441 0.0333252V27.899C25.1441 29.4807 25.0312 31.7017 25.0312 31.7017H30.0112C30.0112 31.7017 30.1899 30.1066 30.1899 28.6488C30.1899 28.6488 32.6503 32.498 39.3403 32.498C46.3852 32.498 51.1704 27.6069 51.1704 20.5996C51.1704 14.0807 46.775 8.83768 39.3517 8.83768C32.4003 8.83768 30.2402 12.5915 30.2402 12.5915V0.0333252H25.1441ZM38.0663 12.2843C42.8503 12.2843 45.8924 15.8349 45.8924 20.5996C45.8924 25.7088 42.3789 29.0513 38.1004 29.0513C32.9945 29.0513 30.2402 25.0646 30.2402 20.6451C30.2402 16.5269 32.7117 12.2843 38.0663 12.2843Z" fill="#0064D2"/>
<path d="M63.5472 8.76941C52.9431 8.76941 52.263 14.5757 52.263 15.5035H57.5411C57.5411 15.5035 57.8179 12.1137 63.1831 12.1137C66.6696 12.1137 69.3712 13.7095 69.3712 16.7775V17.8695H63.1831C54.968 17.8695 50.625 20.2728 50.625 25.1496C50.625 29.9491 54.6378 32.5605 60.0607 32.5605C67.4512 32.5605 69.8319 28.4768 69.8319 28.4768C69.8319 30.1011 69.9571 31.7017 69.9571 31.7017H74.6493C74.6493 31.7017 74.4673 29.7177 74.4673 28.4484V17.4771C74.4673 10.2833 68.6648 8.76941 63.5472 8.76941V8.76941ZM69.3712 21.1456V22.6016C69.3712 24.5006 68.1994 29.2219 61.3006 29.2219C57.5228 29.2219 55.9031 27.3365 55.9031 25.1496C55.9031 21.1712 61.3577 21.1456 69.3712 21.1456V21.1456Z" fill="#F5AF02"/>
<path d="M71.625 9.68042H77.5628L86.0844 26.7529L94.5865 9.68042H99.9653L84.4789 40.0748H78.8368L83.3056 31.6019L71.625 9.68042Z" fill="#86B817"/>
</g>
<defs>
<clipPath id="clip0_1_2862">
<rect width="100" height="40.108" fill="white"/>
</clipPath>
</defs>
</svg>

<svg xmlns="http://www.w3.org/2000/svg" width="156.098" height="64" fill="none" viewBox="0 0 100 41"><g clip-path="url(#a)"><path fill="#E53238" d="M12.953 8.77C5.905 8.77.031 11.76.031 20.781c0 7.147 3.95 11.648 13.104 11.648 10.776 0 11.467-7.098 11.467-7.098H19.38s-1.12 3.822-6.563 3.822c-4.434 0-7.623-2.996-7.623-7.194h19.954v-2.634c0-4.154-2.637-10.557-12.195-10.557Zm-.182 3.366c4.221 0 7.098 2.586 7.098 6.462H5.31c0-4.115 3.756-6.462 7.462-6.462Z"/><path fill="#0064D2" d="M25.144.033V27.9c0 1.582-.113 3.803-.113 3.803h4.98s.179-1.595.179-3.053c0 0 2.46 3.849 9.15 3.849 7.045 0 11.83-4.891 11.83-11.898 0-6.52-4.395-11.762-11.818-11.762-6.952 0-9.112 3.754-9.112 3.754V.033h-5.096Zm12.922 12.251c4.784 0 7.826 3.55 7.826 8.316 0 5.109-3.513 8.451-7.792 8.451-5.105 0-7.86-3.986-7.86-8.406 0-4.118 2.472-8.36 7.826-8.36Z"/><path fill="#F5AF02" d="M63.547 8.77c-10.604 0-11.284 5.806-11.284 6.734h5.278s.277-3.39 5.642-3.39c3.487 0 6.188 1.595 6.188 4.663v1.092h-6.188c-8.215 0-12.558 2.404-12.558 7.28 0 4.8 4.013 7.411 9.436 7.411 7.39 0 9.77-4.083 9.77-4.083 0 1.624.126 3.225.126 3.225h4.692s-.182-1.984-.182-3.254v-10.97c0-7.195-5.802-8.709-10.92-8.709Zm5.824 12.376v1.456c0 1.899-1.172 6.62-8.07 6.62-3.778 0-5.398-1.886-5.398-4.072 0-3.979 5.455-4.004 13.468-4.004Z"/><path fill="#86B817" d="M71.625 9.68h5.938l8.521 17.073L94.586 9.68h5.38L84.478 40.075h-5.642l4.469-8.473L71.625 9.68Z"/></g><defs><clipPath id="a"><path fill="#fff" d="M0 0h100v40.108H0z"/></clipPath></defs></svg>
